src/assets/images/icons/icon-wa.svg

<svg fill="none" height="60" viewBox="0 0 60 60" width="60" xmlns="http://www.w3.org/2000/svg"><circle cx="30" cy="30" fill="#1ec03b" r="30"/><path d="m23 37 1.0544-3.8519c-.6507-1.1275-.9925-2.4056-.9919-3.7162.0019-4.0975 3.3363-7.4319 7.4331-7.4319 1.9882.0006 3.8544.775 5.2582 2.18 1.4031 1.405 2.1756 3.2725 2.175 5.2588-.0019 4.0981-3.3363 7.4325-7.4332 7.4325-1.2437-.0007-2.4694-.3125-3.555-.905zm4.1231-2.3794c1.0475.6219 2.0475.9944 3.37.995 3.405 0 6.1788-2.7712 6.1807-6.1781.0012-3.4138-2.7594-6.1813-6.1757-6.1825-3.4075 0-6.1793 2.7713-6.1806 6.1775-.0006 1.3906.4069 2.4319 1.0913 3.5212l-.6244 2.28zm7.1169-3.415c-.0462-.0775-.17-.1237-.3562-.2169-.1857-.0931-1.0988-.5425-1.2694-.6043-.17-.0619-.2938-.0931-.4182.0931-.1237.1856-.48.6044-.5881.7281-.1081.1238-.2169.1394-.4025.0463s-.7844-.2888-1.4937-.9219c-.5519-.4925-.925-1.1006-1.0332-1.2869-.1081-.1856-.0112-.2862.0813-.3787.0837-.0831.1856-.2169.2787-.3256.0944-.1075.125-.185.1875-.3094.0619-.1238.0313-.2325-.0156-.3256-.0468-.0925-.4181-1.0069-.5725-1.3788-.1512-.3619-.3043-.3131-.4181-.3188l-.3562-.0062c-.1238 0-.3251.0462-.4951.2325-.17.1862-.65.635-.65 1.5494s.6657 1.7975.7582 1.9212c.0931.1238 1.3093 2 3.1725 2.8044.4431.1913.7893.3056 1.0587.3912.445.1413.85.1213 1.17.0738.3569-.0531 1.0988-.4494 1.2538-.8831.155-.4344.155-.8063.1081-.8838z" fill="#fff"/></svg>

<svg width="60" height="60" viewBox="0 0 60 60" fill="none" xmlns="http://www.w3.org/2000/svg">
<circle cx="30" cy="30" r="30" fill="#1EC03B"/>
<path d="M23 37L24.0544 33.1481C23.4037 32.0206 23.0619 30.7425 23.0625 29.4319C23.0644 25.3344 26.3988 22 30.4956 22C32.4838 22.0006 34.35 22.775 35.7538 24.18C37.1569 25.585 37.9294 27.4525 37.9288 29.4388C37.9269 33.5369 34.5925 36.8713 30.4956 36.8713C29.2519 36.8706 28.0262 36.5588 26.9406 35.9663L23 37V37ZM27.1231 34.6206C28.1706 35.2425 29.1706 35.615 30.4931 35.6156C33.8981 35.6156 36.6719 32.8444 36.6738 29.4375C36.675 26.0237 33.9144 23.2562 30.4981 23.255C27.0906 23.255 24.3188 26.0263 24.3175 29.4325C24.3169 30.8231 24.7244 31.8644 25.4088 32.9537L24.7844 35.2337L27.1231 34.6206V34.6206ZM34.24 31.2056C34.1938 31.1281 34.07 31.0819 33.8838 30.9887C33.6981 30.8956 32.785 30.4462 32.6144 30.3844C32.4444 30.3225 32.3206 30.2913 32.1962 30.4775C32.0725 30.6631 31.7162 31.0819 31.6081 31.2056C31.5 31.3294 31.3912 31.345 31.2056 31.2519C31.02 31.1588 30.4212 30.9631 29.7119 30.33C29.16 29.8375 28.7869 29.2294 28.6787 29.0431C28.5706 28.8575 28.6675 28.7569 28.76 28.6644C28.8437 28.5813 28.9456 28.4475 29.0387 28.3388C29.1331 28.2313 29.1637 28.1538 29.2262 28.0294C29.2881 27.9056 29.2575 27.7969 29.2106 27.7038C29.1638 27.6113 28.7925 26.6969 28.6381 26.325C28.4869 25.9631 28.3338 26.0119 28.22 26.0062L27.8638 26C27.74 26 27.5387 26.0462 27.3687 26.2325C27.1987 26.4187 26.7187 26.8675 26.7187 27.7819C26.7187 28.6963 27.3844 29.5794 27.4769 29.7031C27.57 29.8269 28.7862 31.7031 30.6494 32.5075C31.0925 32.6988 31.4387 32.8131 31.7081 32.8987C32.1531 33.04 32.5581 33.02 32.8781 32.9725C33.235 32.9194 33.9769 32.5231 34.1319 32.0894C34.2869 31.655 34.2869 31.2831 34.24 31.2056V31.2056Z" fill="white"/>
</svg>
